X: 30
T: Missa Conceptio tua / Agnus Dei
N: Derived from Rue1006e-Missa_Conceptio_tua-Agnus.krn
C: Pierre de la Rue
%%abc-version 2.0
%%abcx-abcm2ps-target-version 5.9.1 (29 Sep 2008)
%%abc-creator hum2abc beta
%%abcx-conversion-date 2019/02/17 08:01:10
%%abc-edited-by Jesse Rodin
%%abc-edited-by Chris Gage 01-03-2013
%%abcx-initial-encoding-date 2013/07/24/
%%humdrum-veritas 1996980347
%%humdrum-veritas-data 2222834226
%%linebreak <none>
%%barnumbers 0
L: 1/4
M: 3/1
Q: 1/2=120
V: 1 clef=treble
V: 2 clef=treble-8
V: 3 clef=treble-8
V: 4 clef=bass
V: 5 clef=bass
K: C
[V:1] z12 | 
[V:2] D8D4 | 
[V:3] z12 | 
[V:4] z12 | 
[V:5] D,6C,2B,,4 | 
[V:1] z12 | 
[V:2] C4F8 | 
[V:3] z12 | 
[V:4] z12 | 
[V:5] A,,4D,2D,3C,B,,A,, | 
[V:1] D8D4 | 
[V:2] G3EFGA4^G2 | 
[V:3] z12 | 
[V:4] z12 | 
[V:5] G,,2D,4C,2B,,4 | 
[V:1] C4F8 | 
[V:2] A2A3GFED4 | 
[V:3] z12 | 
[V:4] z12 | 
[V:5] A,,4D,2D,3C,B,,A,, | 
[V:1] G3EFGA4^G2 | 
[V:2] z2D2A4B4 | 
[V:3] D8D4 | 
[V:4] z12 | 
[V:5] G,,2D,4C,2B,,4 | 
[V:1] A4z2A3GF2 | 
[V:2] c4c2A4dc | 
[V:3] C4F8 | 
[V:4] A,,8A,,4 | 
[V:5] A,,4z2D,,2D,,4 | 
[V:1] EDCB,A,2C3DE2 | 
[V:2] BAG2A3GF2E2 | 
[V:3] G4F3GA2A2- | 
[V:4] G,,4C,8 | 
[V:5] E,,4F,,2A,,4C,2 | 
[V:1] D2B,2C2E3DB,2 | 
[V:2] F2D2E4z4 | 
[V:3] A2G2A4z4 | 
[V:4] D,4C,3D,E,2E,2- | 
[V:5] B,,4A,,6G,,2 | 
[V:1] z2F2G2E3DD2- | 
[V:2] z12 | 
[V:3] A4G4E2F2 | 
[V:4] E,2D,2E,4z4 | 
[V:5] F,,4E,,4z4 | 
[V:1] D2^C2D4z4 | 
[V:2] z2G2A2B3cA2 | 
[V:3] G4F2D2E4 | 
[V:4] E,4D,4B,,2C,2 | 
[V:5] z4z2G,,4A,,2 | 
[V:1] z4E4G4 | 
[V:2] G2B3AA4G2 | 
[V:3] D4z4z4 | 
[V:4] D,4C,2A,,2B,,4 | 
[V:5] B,,2G,,2A,,4E,,4 | 
[V:1] F2E4DCB,2A,2 | 
[V:2] A3GE2F2G2E2- | 
[V:3] z12 | 
[V:4] A,,4z4z4 | 
[V:5] z2A,,2A,,4G,,2A,,2- | 
[V:1] z2D2E2G2F2D2- | 
[V:2] EDD4^C2D4- | 
[V:3] z4z4D4 | 
[V:4] z12 | 
[V:5] A,,G,,F,,2E,,4D,,4- | 
[V:1] DEFGA6F2- | 
[V:2] D4z4A4- | 
[V:3] F3ED4C4 | 
[V:4] z4z4A,,4 | 
[V:5] D,,4z2D,,2F,,4- | 
[V:1] F2EDC3DE4 | 
[V:2] A2A2A4B2G2 | 
[V:3] F8G4 | 
[V:4] C,3B,,A,,4G,,4 | 
[V:5] F,,2F,,2F,,4E,,4 | 
[V:1] A,2C3DE2D2B,2 | 
[V:2] A3GF2E2F2D2 | 
[V:3] F3GA2A4G2 | 
[V:4] C,8D,4 | 
[V:5] F,,2A,,4C,2B,,4 | 
[V:1] C8F4 | 
[V:2] E8z4 | 
[V:3] A8A4 | 
[V:4] C,3D,E,2E,4D,2 | 
[V:5] A,,6G,,2F,,4 | 
[V:1] G8E4 | 
[V:2] z2E2G3AB2c2 | 
[V:3] G6E2G4 | 
[V:4] E,8E,4 | 
[V:5] E,,12 | 
[V:1] F8D4 | 
[V:2] d4d3cA2B2 | 
[V:3] F8F4 | 
[V:4] D,6B,,2D,4 | 
[V:5] z4z4D,,4 | 
[V:1] E2G3FEDC3B, | 
[V:2] c2G4G2A4 | 
[V:3] E4C2D2E4 | 
[V:4] C,8C,4 | 
[V:5] A,,2E,,2C,3B,,A,,G,,A,,2 | 
[V:1] D4z4D4 | 
[V:2] G2B3AA4^G2 | 
[V:3] D4z4z4 | 
[V:4] B,,4G,,2A,,2B,,4 | 
[V:5] B,,2G,,2B,,2C,2D,4 | 
[V:1] C2C4B,A,B,2E2 | 
[V:2] A4z2A2G3A | 
[V:3] z4z4E4 | 
[V:4] A,,4z4z4 | 
[V:5] E,8E,,4 | 
[V:1] D2E4DCB,4 | 
[V:2] B4c2BAG2B2- | 
[V:3] G4E2F2G3F | 
[V:4] z4z4B,,4 | 
[V:5] z4z4z2G,,2- | 
[V:1] z2A2G2E2F3E/D/ | 
[V:2] B2A2B2A4A2 | 
[V:3] D2F2E4D2F2- | 
[V:4] D,4B,,2C,2D,3C, | 
[V:5] G,,2F,,2G,,2A,,2D,,4 | 
[V:1] CDEFG4C3D | 
[V:2] c2A2B2G2A3G | 
[V:3] FEC2D2E2F3E | 
[V:4] A,,C,3B,,4A,,2C,2- | 
[V:5] A,,4G,,4F,,2A,,2- | 
[V:1] EFGFEDD4^C2 | 
[V:2] E2c4B2A4 | 
[V:3] C2G4F2E4 | 
[V:4] C,B,,G,,2A,,2B,,2C,3B,, | 
[V:5] A,,G,,E,,2C,,2D,,2A,,4 | 
[V:1] D12- | 
[V:2] G2_B4A2GFG2 | 
[V:3] D12- | 
[V:4] G,,2D,4C,2_B,,4 | 
[V:5] _B,,2G,,2D,,2F,,2G,,4 | 
[V:1] D12 ||  
[V:2] A12 ||  
[V:3] D12 ||  
[V:4] A,,12 ||  
[V:5] D,,12 ||  
[V:1]  [K:C] [K:clef=treble][M:2/1]z8 | 
[V:2]  [K:C] [K:clef=treble-8][M:2/1]z8 | 
[V:3]  [K:C] [K:clef=treble-8][M:2/1]D8 | 
[V:4]  [K:C] [K:clef=bass][M:2/1]A,,4A,,2B,,2- | 
[V:5]  [K:C] [K:clef=bass][M:2/1]D,,3E,,F,,2G,,2- | 
[V:1] z8 | 
[V:2] z8 | 
[V:3] D8 | 
[V:4] B,,C,D,3C,B,,A,, | 
[V:5] G,,A,,B,,3A,,G,,F,, | 
[V:1] z8 | 
[V:2] z8 | 
[V:3] C3DE2F2- | 
[V:4] G,,3A,,B,,2C,2- | 
[V:5] E,,3F,,G,,2A,,2- | 
[V:1] z8 | 
[V:2] z8 | 
[V:3] FGA3GFE | 
[V:4] C,B,,C,2D,4 | 
[V:5] A,,G,,F,,E,,D,,4- | 
[V:1] D8 | 
[V:2] D3EF2G2- | 
[V:3] D4z4 | 
[V:4] A,,2D,3C,B,,A,, | 
[V:5] D,,4z4 | 
[V:1] D8 | 
[V:2] GAB3AGF | 
[V:3] z8 | 
[V:4] G,,8 | 
[V:5] z8 | 
[V:1] C8 | 
[V:2] E3FG2A2- | 
[V:3] z8 | 
[V:4] C,3D,E,2F,2- | 
[V:5] z8 | 
[V:1] F8- | 
[V:2] ABc3BAG | 
[V:3] z8 | 
[V:4] F,G,A,3G,F,E, | 
[V:5] z8 | 
[V:1] F8 | 
[V:2] F3GA2B2- | 
[V:3] z2A3GF2 | 
[V:4] D,8 | 
[V:5] z8 | 
[V:1] G8 | 
[V:2] Bcd4^c2 | 
[V:3] E2D2E4 | 
[V:4] z8 | 
[V:5] z8 | 
[V:1] F8 | 
[V:2] d8 | 
[V:3] D2A4G2 | 
[V:4] z8 | 
[V:5] D,,6E,,2 | 
[V:1] A8 | 
[V:2] z8 | 
[V:3] F3E/D/C3D | 
[V:4] z2A,3G,F,2 | 
[V:5] F,,2D,,2A,,3B,, | 
[V:1] A8 | 
[V:2] z4A4 | 
[V:3] A,2D4^C2 | 
[V:4] E,2D,2E,4 | 
[V:5] C,2D,2A,,4 | 
[V:1] z8 | 
[V:2] A2A4c2- | 
[V:3] D4z2E2 | 
[V:4] D,4A,,4 | 
[V:5] D,,4z2A,,2- | 
[V:1] z8 | 
[V:2] c2B2A4 | 
[V:3] F2E4D2 | 
[V:4] z4A,,4 | 
[V:5] A,,2G,,2F,,4 | 
[V:1] z8 | 
[V:2] G3AB2c2- | 
[V:3] E2A2G2F2 | 
[V:4] B,,2E,2D,2C,2- | 
[V:5] E,,2C,2B,,2A,,2- | 
[V:1] A8 | 
[V:2] cdB2A4 | 
[V:3] E2E4D2 | 
[V:4] C,B,,A,,G,,A,,4 | 
[V:5] A,,2G,,2F,,4 | 
[V:1] G8 | 
[V:2] z2c2B2G2- | 
[V:3] E8 | 
[V:4] B,,2G,,3A,,B,,2 | 
[V:5] E,,8 | 
[V:1] E8 | 
[V:2] GFGAB2c2- | 
[V:3] z2G3FED | 
[V:4] C,3B,,G,,2A,,2- | 
[V:5] z2E,3D,C,B,, | 
[V:1] F8 | 
[V:2] c2B2A4 | 
[V:3] CB,E4D2 | 
[V:4] A,,2B,,2C,2A,,2 | 
[V:5] A,,2G,,2F,,4 | 
[V:1] G8- | 
[V:2] G8- | 
[V:3] E8- | 
[V:4] B,,2C,2B,,2E,2- | 
[V:5] E,,8- | 
[V:1] G8 | 
[V:2] G4B4 | 
[V:3] E8 | 
[V:4] E,2D,C,B,,2C,2 | 
[V:5] E,,8 | 
[V:1] F8 | 
[V:2] A2B2A2d2- | 
[V:3] z8 | 
[V:4] D,8 | 
[V:5] z8 | 
[V:1] E8 | 
[V:2] d2cBc4 | 
[V:3] z4A3G | 
[V:4] A,,4z2A,,2 | 
[V:5] z8 | 
[V:1] D8 | 
[V:2] z4A4 | 
[V:3] FEG4^F2 | 
[V:4] B,,2A,,G,,A,,4 | 
[V:5] D,,8 | 
[V:1] D8 | 
[V:2] B2B4AG | 
[V:3] G4D4- | 
[V:4] G,,4B,,4 | 
[V:5] G,,8 | 
[V:1] z8 | 
[V:2] F2G4^F2 | 
[V:3] D4D4 | 
[V:4] A,,2G,,2A,,4 | 
[V:5] D,,8 | 
[V:1] z8 | 
[V:2] G3FGA_B2- | 
[V:3] E2D2G4- | 
[V:4] G,,3A,,B,,C,D,2- | 
[V:5] G,,8- | 
[V:1] D8 | 
[V:2] BAGFG4 | 
[V:3] G4D4 | 
[V:4] D,C,B,,A,,B,,4 | 
[V:5] G,,8 | 
[V:1] F8 | 
[V:2] A8- | 
[V:3] D2F4ED | 
[V:4] A,,8- | 
[V:5] D,,8- | 
[V:1] D8 | 
[V:2] A8 | 
[V:3] A2D3EF2 | 
[V:4] A,,8 | 
[V:5] D,,8 | 
[V:1] D8 | 
[V:2] z8 | 
[V:3] G2D3EFG | 
[V:4] z8 | 
[V:5] z8 | 
[V:1] C8 | 
[V:2] z4z2A2- | 
[V:3] A2GFE4 | 
[V:4] A,,8- | 
[V:5] z8 | 
[V:1] F8- | 
[V:2] A2A4d2- | 
[V:3] D8 | 
[V:4] A,,8 | 
[V:5] D,,8- | 
[V:1] F8 | 
[V:2] d2cBA4 | 
[V:3] D4D4 | 
[V:4] A,,8 | 
[V:5] D,,8 | 
[V:1] G8- | 
[V:2] G8- | 
[V:3] E2D2G3F | 
[V:4] B,,8 | 
[V:5] G,,4G,,4- | 
[V:1] G8 | 
[V:2] G8 | 
[V:3] E2D4^C2 | 
[V:4] G,,8 | 
[V:5] G,,2F,,2E,,4 | 
[V:1] F8 | 
[V:2] z2d4cB | 
[V:3] D8 | 
[V:4] A,,8 | 
[V:5] D,,8- | 
[V:1] A8 | 
[V:2] A4A3B | 
[V:3] z4z2A2- | 
[V:4] z2D,4C,B,, | 
[V:5] D,,8 | 
[V:1] A8 | 
[V:2] c4c4 | 
[V:3] A2GFE4 | 
[V:4] A,,4A,,3B,, | 
[V:5] z8 | 
[V:1] G8 | 
[V:2] G3ABcd2 | 
[V:3] E3FG2D2- | 
[V:4] C,2G,,3A,,B,,C, | 
[V:5] z8 | 
[V:1] F8 | 
[V:2] A4A2d2- | 
[V:3] DEF3GA2- | 
[V:4] D,2A,,2D,4 | 
[V:5] z8 | 
[V:1] E8 | 
[V:2] d2^cB^c4 | 
[V:3] A2GFE4 | 
[V:4] A,,8 | 
[V:5] z8 | 
[V:1] D8 | 
[V:2] d3cA2B2 | 
[V:3] F4z4 | 
[V:4] z2D,3C,B,,2 | 
[V:5] D,,3E,,F,,2G,,2- | 
[V:1] z8 | 
[V:2] c4B4 | 
[V:3] z4z2G2- | 
[V:4] A,,4G,,4- | 
[V:5] G,,2^F,,2G,,3A,, | 
[V:1] z8 | 
[V:2] z8 | 
[V:3] GFE2D4 | 
[V:4] G,,4G,,4 | 
[V:5] B,,2C,4B,,2 | 
[V:1] E8 | 
[V:2] z4G3A | 
[V:3] C4z4 | 
[V:4] z2G,3F,E,2 | 
[V:5] C,8 | 
[V:1] G8 | 
[V:2] B2c4B2 | 
[V:3] z4G4 | 
[V:4] D,2C,2D,4 | 
[V:5] G,,8 | 
[V:1] E8 | 
[V:2] c8- | 
[V:3] G8 | 
[V:4] C,8- | 
[V:5] C,8 | 
[V:1] F8 | 
[V:2] c8 | 
[V:3] A8 | 
[V:4] C,8 | 
[V:5] F,,8 | 
[V:1] E8 | 
[V:2] z4c4 | 
[V:3] G4A4 | 
[V:4] C,8 | 
[V:5] z4A,,4 | 
[V:1] D8- | 
[V:2] d2_B2A4 | 
[V:3] F2G2[D4A4] | 
[V:4] z4A,,4 | 
[V:5] _B,,2G,,3F,,F,,2 | 
[V:1] D8 | 
[V:2] G2_B4A2 | 
[V:3] D8- | 
[V:4] _B,,2G,,4F,,2 | 
[V:5] G,,2D,3C,_B,,A,, | 
[V:1] D8- | 
[V:2] _B2AGF4 | 
[V:3] D8 | 
[V:4] G,,2D,3C,_B,,A,, | 
[V:5] G,,2F,,E,,D,,2F,,2 | 
[V:1] D8- | 
[V:2] z2A2G2F2 | 
[V:3] D8- | 
[V:4] G,,2F,,2G,,2A,,2 | 
[V:5] G,,2A,,2_B,,2A,,2 | 
[V:1] D8- | 
[V:2] G2_B4AG | 
[V:3] D8- | 
[V:4] _B,,2G,,2G,4 | 
[V:5] G,,6F,,E,, | 
[V:1] D8 |]  
[V:2] A8 |]  
[V:3] D8 |]  
[V:4] F,8 |]  
[V:5] D,,8 |]  



